X:81
M:none
L:1/4
K:D
A A B c | d d c B | d A F G | (F E) D2 | A A B c | d d c B | d A F G | (F E) D2 | D E F F | D E F3/2 d/ c d | e3/2 d/ (c B) A3/2 D/ | A d c A | (B3/4A// G) F3/2 E/ F F | A3/2 G/ (F E) | D2 z | D E F F | D E F3/2 d/ c d | e3/2 d/ (c B) A3/2 D/ | A d c A | (B3/4A// G) F3/2 E/ F F | A3/2 G/ (F E) | D2 z | D E F F | D E F3/2 !sintro!G/ A3/2 G/ | F G (F E) | D4 !eintro!|]
